packages/ui-icons/src/Basic/32/Block_number_32.svg

<svg xmlns="http://www.w3.org/2000/svg" viewBox="0 0 40 40"><path d="M34 19a5 5 0 0 0-4-4.9V4H15.55L6 14.62V36h23a7 7 0 0 0 7-7v-7h-2Zm-2 0v3h-6v-3a3 3 0 0 1 6 0ZM8 34V15.38L16.45 6H28v8.1a5 5 0 0 0-4 4.9v3h-2v7a7 7 0 0 0 2.11 5Zm26-5a5 5 0 0 1-10 0v-5h10Zm-7-1a2 2 0 1 1 3 1.72V32h-2v-2.28A2 2 0 0 1 27 28Z"/></svg>

<svg id="Ready" xmlns="http://www.w3.org/2000/svg" viewBox="0 0 40 40"><title>Megaicons_work_32_1.8_cp</title><path d="M34,19a5,5,0,0,0-4-4.9V4H15.55L6,14.62V36H29a7,7,0,0,0,7-7V22H34Zm-2,0v3H26V19a3,3,0,0,1,6,0ZM8,34V15.38L16.45,6H28v8.1A5,5,0,0,0,24,19v3H22v7a7,7,0,0,0,2.11,5Zm26-5a5,5,0,0,1-10,0V24H34Zm-7-1a2,2,0,1,1,3,1.72V32H28V29.72A2,2,0,0,1,27,28Z"/></svg>
